X: 22991
T: Lasses' Fashions, The
R: reel
M: 4/4
K: Amajor
c|:A>F F/F/F AEEc|A>F F/F/F {AB}c2 Bc|A>F F/F/F AEEA|FGAB {dcB}c2Bc:|
eAfA {dcB}cBBf|e<A f>{gf}e c2 ca|eAfA cA B<c|AFAB {dcB}c2 cf|
eAfA {dcB}cBBf|e<a f{gf}e c2 cb|agfa eacA|FGAB cAB||

